branded-ui/katacoda/static/logo.svg

<svg viewBox="0 0 613 145" xmlns="http://www.w3.org/2000/svg"><path d="m127.47 83.49c12.51 0 30.61-2.58 30.61-17.46a14 14 0 0 0 -.31-3.42l-7.45-32.36c-1.72-7.12-3.23-10.35-15.73-16.6-9.7-4.96-30.83-13.15-37.08-13.15-5.82 0-7.51 7.5-14.45 7.5-6.68 0-11.64-5.6-17.89-5.6-6 0-9.91 4.09-12.93 12.5 0 0-8.41 23.72-9.49 27.16a6.43 6.43 0 0 0 -.22 1.94c0 9.22 36.3 39.45 84.94 39.45m32.53-11.38c1.73 8.19 1.73 9.05 1.73 10.13 0 14-15.74 21.77-36.43 21.77-46.76.03-87.72-27.37-87.72-45.48a18.45 18.45 0 0 1 1.51-7.33c-16.82.84-38.59 3.84-38.59 23.06 0 31.48 74.59 70.28 133.65 70.28 45.28 0 56.7-20.48 56.7-36.65 0-12.72-11-27.16-30.83-35.78" fill="#e00"/><path d="m160 72.07c1.73 8.19 1.73 9.05 1.73 10.13 0 14-15.74 21.77-36.43 21.77-46.76.03-87.72-27.37-87.72-45.48a18.45 18.45 0 0 1 1.51-7.33l3.66-9.06a6.43 6.43 0 0 0 -.22 1.9c0 9.22 36.3 39.45 84.94 39.45 12.51 0 30.61-2.58 30.61-17.46a14 14 0 0 0 -.31-3.42z"/><path d="m579.74 92.8c0 11.89 7.15 17.67 20.19 17.67a52.11 52.11 0 0 0 11.89-1.68v-13.79a24.84 24.84 0 0 1 -7.68 1.16c-5.37 0-7.36-1.68-7.36-6.73v-21.13h15.56v-14.2h-15.56v-18l-17 3.68v14.32h-11.29v14.2h11.25zm-53 .32c0-3.68 3.69-5.47 9.26-5.47a43.12 43.12 0 0 1 10.1 1.26v7.15a21.51 21.51 0 0 1 -10.63 2.63c-5.46 0-8.73-2.1-8.73-5.57m5.2 17.56c6 0 10.84-1.26 15.36-4.31v3.37h16.82v-35.66c0-13.56-9.14-21-24.39-21-8.52 0-16.94 2-26 6.1l6.1 12.52c6.52-2.74 12-4.42 16.83-4.42 7 0 10.62 2.73 10.62 8.31v2.73a49.53 49.53 0 0 0 -12.62-1.58c-14.31 0-22.93 6-22.93 16.73 0 9.78 7.78 17.24 20.19 17.24m-92.44-.94h18.09v-28.85h30.29v28.82h18.14v-73.62h-18.07v28.29h-30.29v-28.29h-18.09zm-68.86-27.9c0-8 6.31-14.1 14.62-14.1a17.22 17.22 0 0 1 11.76 4.32v19.45a16.36 16.36 0 0 1 -11.76 4.46c-8.2 0-14.62-6.1-14.62-14.09m26.61 27.87h16.83v-77.34l-17 3.68v20.93a28.3 28.3 0 0 0 -14.2-3.68c-16.19 0-28.92 12.51-28.92 28.5a28.25 28.25 0 0 0 28.4 28.6 25.12 25.12 0 0 0 14.93-4.83zm-77.23-42.78c5.36 0 9.88 3.47 11.67 8.83h-23.2c1.68-5.53 5.89-8.83 11.53-8.83m-28.67 15c0 16.2 13.25 28.82 30.28 28.82 9.36 0 16.2-2.53 23.25-8.42l-11.26-10c-2.63 2.74-6.52 4.21-11.14 4.21a14.39 14.39 0 0 1 -13.68-8.83h39.65v-4.23c0-17.67-11.88-30.39-28.08-30.39a28.57 28.57 0 0 0 -29 28.81m-29.35-30.39c6 0 9.36 3.78 9.36 8.31s-3.36 8.31-9.36 8.31h-17.89v-16.62zm-36 58.16h18.09v-26.82h13.77l13.89 26.82h20.25l-16.2-29.45a22.27 22.27 0 0 0 13.88-20.72c0-13.25-10.41-23.45-26-23.45h-37.68z"/></svg>

<svg id="Layer_1" data-name="Layer 1" xmlns="http://www.w3.org/2000/svg" viewBox="0 0 613 145"><defs><style>.cls-1{fill:#e00;}</style></defs><title>RedHat-Logo-A-Color</title><path class="cls-1" d="M127.47,83.49c12.51,0,30.61-2.58,30.61-17.46a14,14,0,0,0-.31-3.42l-7.45-32.36c-1.72-7.12-3.23-10.35-15.73-16.6C124.89,8.69,103.76.5,97.51.5,91.69.5,90,8,83.06,8c-6.68,0-11.64-5.6-17.89-5.6-6,0-9.91,4.09-12.93,12.5,0,0-8.41,23.72-9.49,27.16A6.43,6.43,0,0,0,42.53,44c0,9.22,36.3,39.45,84.94,39.45M160,72.07c1.73,8.19,1.73,9.05,1.73,10.13,0,14-15.74,21.77-36.43,21.77C78.54,104,37.58,76.6,37.58,58.49a18.45,18.45,0,0,1,1.51-7.33C22.27,52,.5,55,.5,74.22c0,31.48,74.59,70.28,133.65,70.28,45.28,0,56.7-20.48,56.7-36.65,0-12.72-11-27.16-30.83-35.78"/><path d="M160,72.07c1.73,8.19,1.73,9.05,1.73,10.13,0,14-15.74,21.77-36.43,21.77C78.54,104,37.58,76.6,37.58,58.49a18.45,18.45,0,0,1,1.51-7.33l3.66-9.06A6.43,6.43,0,0,0,42.53,44c0,9.22,36.3,39.45,84.94,39.45,12.51,0,30.61-2.58,30.61-17.46a14,14,0,0,0-.31-3.42Z"/><path d="M579.74,92.8c0,11.89,7.15,17.67,20.19,17.67a52.11,52.11,0,0,0,11.89-1.68V95a24.84,24.84,0,0,1-7.68,1.16c-5.37,0-7.36-1.68-7.36-6.73V68.3h15.56V54.1H596.78v-18l-17,3.68V54.1H568.49V68.3h11.25Zm-53,.32c0-3.68,3.69-5.47,9.26-5.47a43.12,43.12,0,0,1,10.1,1.26v7.15a21.51,21.51,0,0,1-10.63,2.63c-5.46,0-8.73-2.1-8.73-5.57m5.2,17.56c6,0,10.84-1.26,15.36-4.31v3.37h16.82V74.08c0-13.56-9.14-21-24.39-21-8.52,0-16.94,2-26,6.1l6.1,12.52c6.52-2.74,12-4.42,16.83-4.42,7,0,10.62,2.73,10.62,8.31v2.73a49.53,49.53,0,0,0-12.62-1.58c-14.31,0-22.93,6-22.93,16.73,0,9.78,7.78,17.24,20.19,17.24m-92.44-.94h18.09V80.92h30.29v28.82H506V36.12H487.93V64.41H457.64V36.12H439.55ZM370.62,81.87c0-8,6.31-14.1,14.62-14.1A17.22,17.22,0,0,1,397,72.09V91.54A16.36,16.36,0,0,1,385.24,96c-8.2,0-14.62-6.1-14.62-14.09m26.61,27.87h16.83V32.44l-17,3.68V57.05a28.3,28.3,0,0,0-14.2-3.68c-16.19,0-28.92,12.51-28.92,28.5a28.25,28.25,0,0,0,28.4,28.6,25.12,25.12,0,0,0,14.93-4.83ZM320,67c5.36,0,9.88,3.47,11.67,8.83H308.47C310.15,70.3,314.36,67,320,67M291.33,82c0,16.2,13.25,28.82,30.28,28.82,9.36,0,16.2-2.53,23.25-8.42l-11.26-10c-2.63,2.74-6.52,4.21-11.14,4.21a14.39,14.39,0,0,1-13.68-8.83h39.65V83.55c0-17.67-11.88-30.39-28.08-30.39a28.57,28.57,0,0,0-29,28.81M262,51.58c6,0,9.36,3.78,9.36,8.31S268,68.2,262,68.2H244.11V51.58Zm-36,58.16h18.09V82.92h13.77l13.89,26.82H292l-16.2-29.45a22.27,22.27,0,0,0,13.88-20.72c0-13.25-10.41-23.45-26-23.45H226Z"/></svg>
